webapp/src/assets/icons/cloudproviders/aws/architecture_services/elastic_kubernetes_service.svg

<?xml version="1.0" encoding="UTF-8"?>
<svg width="24px" height="24px" viewBox="0 0 24 24" version="1.1" xmlns="http://www.w3.org/2000/svg" xmlns:xlink="http://www.w3.org/1999/xlink">
    <title>Icon-Architecture/16/Arch_Amazon-Elastic-Kubernetes-Service_16</title>
    <g id="Icon-Architecture/16/Arch_Amazon-Elastic-Kubernetes-Service_16" stroke="none" stroke-width="1" fill="none" fill-rule="evenodd">
        <path d="M14.2912173,9.85625881 L12.4341797,11.828984 L14.4540095,13.986466 L13.7003417,13.986466 L11.8493334,12.0137408 L11.8493334,13.986466 L11.2343405,13.986466 L11.2343405,9.85625881 L11.8493334,9.85625881 L11.8493334,11.7038262 L13.5676961,9.85625881 L14.2912173,9.85625881 Z M18.9951095,14.0569914 L17.036578,12.5362249 L17.036578,9.70726144 C17.036578,9.5354178 16.9471428,9.37549395 16.7994239,9.28510221 L13.9957795,7.56765916 L13.9957795,5.38435098 L18.9951095,8.31065939 L18.9951095,14.0569914 Z M19.7538018,7.60043858 L13.7495813,4.08509388 C13.5948282,3.99470214 13.4008843,3.99271551 13.2441214,4.08112062 C13.0883634,4.16952573 12.990889,4.33342284 12.990889,4.51221968 L12.990889,7.84380096 C12.990889,8.01564459 13.0813291,8.17556844 13.2280431,8.26596018 L16.0316875,9.98340324 L16.0316875,12.7776006 C16.0316875,12.929578 16.1030348,13.0736088 16.2246265,13.1679738 L19.1870436,15.4704798 C19.2774838,15.5410053 19.3860119,15.5767646 19.4975548,15.5767646 C19.5719167,15.5767646 19.6472834,15.5598783 19.7166209,15.5261055 C19.889462,15.4436603 20,15.26983 20,15.0801067 L20,8.02756438 C20,7.85174748 19.9065452,7.68884369 19.7538018,7.60043858 L19.7538018,7.60043858 Z M12.5346687,18.959005 L6.00489047,15.6701363 L6.00489047,8.30966608 L10.9871374,5.37143787 L10.9871374,7.55573937 L8.24780599,9.27020248 C8.10310176,9.36158753 8.0146714,9.51952475 8.0146714,9.69037507 L8.0146714,14.2566479 C8.0146714,14.4453779 8.12219468,14.6172216 8.29403095,14.7016534 L12.2563141,16.6425925 C12.3969987,16.7121246 12.5648154,16.710138 12.706505,16.6396126 L15.816641,15.0751401 L17.9058083,16.8154295 L12.5346687,18.959005 Z M16.2085483,14.1036773 C16.0558049,13.9755395 15.8357339,13.9517 15.6568634,14.0410984 L12.4753802,15.6413302 L9.01956187,13.94872 L9.01956187,9.96254361 L11.7578884,8.2480805 C11.9035975,8.15669544 11.9920279,7.99875822 11.9920279,7.8279079 L11.9920279,4.49731995 C11.9920279,4.3185231 11.8945535,4.15363267 11.7377906,4.06522756 C11.5790179,3.97582914 11.385074,3.97880909 11.2323307,4.07118746 L5.24519327,7.60043858 C5.09345481,7.689837 5,7.85174748 5,8.02756438 L5,15.974091 C5,16.1608343 5.1055135,16.3316847 5.2743351,16.4161165 L12.2824412,19.9463609 C12.3527835,19.9821203 12.431165,20 12.5105513,20 C12.5738594,20 12.6371675,19.9880802 12.6984659,19.9642406 L19.0564079,17.4283053 C19.2192001,17.3627465 19.3367723,17.2177224 19.3649092,17.0448854 C19.3920413,16.8730418 19.3267234,16.6992115 19.1920681,16.5869668 L16.2085483,14.1036773 Z" id="Amazon-Elastic-Kubernetes-Service_Icon_16_Squid" fill="#ED7100"></path>
    </g>
</svg>

<svg width="24" height="24" xmlns="http://www.w3.org/2000/svg"><path d="m14.291 9.856-1.857 1.973 2.02 2.157H13.7l-1.85-1.972v1.972h-.616v-4.13h.615v1.848l1.719-1.848h.723Zm4.704 4.201-1.958-1.52v-2.83a.495.495 0 0 0-.238-.422l-2.803-1.717V5.384l5 2.927v5.746Zm.759-6.457L13.75 4.085a.51.51 0 0 0-.506-.004.496.496 0 0 0-.253.431v3.332c0 .172.09.332.237.422l2.804 1.717v2.795c0 .152.071.296.193.39l2.962 2.302a.502.502 0 0 0 .53.056.496.496 0 0 0 .283-.446V8.028a.493.493 0 0 0-.246-.428Zm-7.22 11.359-6.53-3.289V8.31l4.983-2.939v2.185L8.247 9.27a.497.497 0 0 0-.232.42v4.567c0 .188.107.36.279.445l3.962 1.94c.141.07.309.068.45-.002l3.11-1.565 2.09 1.74-5.371 2.144Zm3.675-4.855a.51.51 0 0 0-.552-.063l-3.182 1.6L9.02 13.95V9.963l2.738-1.715a.496.496 0 0 0 .234-.42v-3.33a.502.502 0 0 0-.76-.426L5.245 7.6A.496.496 0 0 0 5 8.028v7.946c0 .187.106.358.274.442l7.008 3.53a.503.503 0 0 0 .416.018l6.358-2.536a.495.495 0 0 0 .136-.841l-2.983-2.483Z" fill="#ED7100" fill-rule="evenodd"/></svg>
